X:90
T:Trip to Paris
M: C|
L:1/8
B:Thompson's Compleat Collection of 200 Favourite Country Dances, vol. 3 (London, 1773)
Z:Transcribed and edited by Flynn Titford-Mock, 2007
Z:abc's:AK/Fiddler's Companion
K:G
G2 Bd cAFD | GBdg d2 cB | ceAc BdGB | AcAF G2 G,2 :|
|: gbeg fadf | egfe d2d2 | ceAc BdGB | AcAF G2 G,2 :|

